public/icons/filter.svg

<svg height="15" viewBox="0 0 16 15" width="16" xmlns="http://www.w3.org/2000/svg"><g fill="#2d80ff" fill-rule="evenodd"><path d="m.82604651 2.75348837h1.00837209c.24776427.88104501 1.05129174 1.48977546 1.96651163 1.48977546s1.71874736-.60873045 1.96651163-1.48977546h9.57023254c.308252 0 .5581396-.24988758.5581396-.55813953 0-.30825196-.2498876-.55813954-.5581396-.55813954h-9.56651161c-.24776427-.88104501-1.05129174-1.48977546-1.96651163-1.48977546s-1.71874736.60873045-1.96651163 1.48977546h-1.01209302c-.30825195 0-.55813953.24988758-.55813953.55813954 0 .30825195.24988758.55813953.55813953.55813953zm2.97674419-1.48837209c.51375325 0 .93023256.4164793.93023256.93023256 0 .51375325-.41647931.93023256-.93023256.93023256-.51375326 0-.93023256-.41647931-.93023256-.93023256 0-.51375326.4164793-.93023256.93023256-.93023256z"/><path d="m15.3376744 6.84651163h-5.35069766c-.30449546-.78685053-1.06140351-1.30554868-1.90511627-1.30554868-.84371277 0-1.60062082.51869815-1.90511628 1.30554868h-5.35069768c-.30825195 0-.55813953.24988758-.55813953.55813953 0 .30825196.24988758.55813954.55813953.55813954h5.24651163c.18213714.96720731 1.02695554 1.66778472 2.01116279 1.66778472s1.82902565-.70057741 2.01116277-1.66778472h5.2427907c.308252 0 .5581396-.24988758.5581396-.55813954 0-.30825195-.2498876-.55813953-.5581396-.55813953zm-7.25581393 1.6744186c-.51375326 0-.93023256-.4164793-.93023256-.93023256 0-.51375325.4164793-.93023255.93023256-.93023255.51375325 0 .93023255.4164793.93023255.93023255 0 .51375326-.4164793.93023256-.93023255.93023256z"/><path d="m15.3376744 12.055814h-1.0083721c-.2477642-.8810451-1.0512917-1.4897755-1.9665116-1.4897755s-1.7187474.6087304-1.9665116 1.4897755h-9.57023259c-.30825195 0-.55813953.2498875-.55813953.5581395 0 .3082519.24988758.5581395.55813953.5581395h9.56651159c.2477643.881045 1.0512918 1.4897755 1.9665117 1.4897755s1.7187473-.6087305 1.9665116-1.4897755h1.012093c.308252 0 .5581396-.2498876.5581396-.5581395 0-.308252-.2498876-.5581395-.5581396-.5581395zm-2.9767442 1.488372c-.5137532 0-.9302325-.4164793-.9302325-.9302325 0-.5137533.4164793-.9302326.9302325-.9302326.5137533 0 .9302326.4164793.9302326.9302326 0 .5137532-.4164793.9302325-.9302326.9302325z"/></g></svg>

<?xml version="1.0" encoding="UTF-8"?>
<svg width="16px" height="15px" viewBox="0 0 16 15" version="1.1" xmlns="http://www.w3.org/2000/svg" xmlns:xlink="http://www.w3.org/1999/xlink">
    <title>Filter-2</title>
    <g id="Page-1" stroke="none" stroke-width="1" fill="none" fill-rule="evenodd">
        <g id="MARKET-BASE-1-v0_1-(Not-login)-(Tablet)" transform="translate(-533.000000, -138.000000)" fill="#2D80FF">
            <g id="Group-7" transform="translate(32.000000, 125.000000)">
                <g id="Group-11" transform="translate(489.000000, 0.000000)">
                    <g id="Filter-2" transform="translate(12.000000, 13.000000)">
                        <path d="M0.826046512,2.75348837 L1.8344186,2.75348837 C2.08218287,3.63453338 2.88571034,4.24326383 3.80093023,4.24326383 C4.71615012,4.24326383 5.51967759,3.63453338 5.76744186,2.75348837 L15.3376744,2.75348837 C15.6459264,2.75348837 15.895814,2.50360079 15.895814,2.19534884 C15.895814,1.88709688 15.6459264,1.6372093 15.3376744,1.6372093 L5.77116279,1.6372093 C5.52339852,0.75616429 4.71987105,0.147433841 3.80465116,0.147433841 C2.88943127,0.147433841 2.0859038,0.75616429 1.83813953,1.6372093 L0.826046512,1.6372093 C0.517794558,1.6372093 0.267906977,1.88709688 0.267906977,2.19534884 C0.267906977,2.50360079 0.517794558,2.75348837 0.826046512,2.75348837 Z M3.8027907,1.26511628 C4.31654395,1.26511628 4.73302326,1.68159558 4.73302326,2.19534884 C4.73302326,2.70910209 4.31654395,3.1255814 3.8027907,3.1255814 C3.28903744,3.1255814 2.87255814,2.70910209 2.87255814,2.19534884 C2.87255814,1.68159558 3.28903744,1.26511628 3.8027907,1.26511628 Z" id="Shape"></path>
                        <path d="M15.3376744,6.84651163 L9.98697674,6.84651163 C9.68248128,6.0596611 8.92557323,5.54096295 8.08186047,5.54096295 C7.2381477,5.54096295 6.48123965,6.0596611 6.17674419,6.84651163 L0.826046512,6.84651163 C0.517794558,6.84651163 0.267906977,7.09639921 0.267906977,7.40465116 C0.267906977,7.71290312 0.517794558,7.9627907 0.826046512,7.9627907 L6.07255814,7.9627907 C6.25469528,8.92999801 7.09951368,9.63057542 8.08372093,9.63057542 C9.06792818,9.63057542 9.91274658,8.92999801 10.0948837,7.9627907 L15.3376744,7.9627907 C15.6459264,7.9627907 15.895814,7.71290312 15.895814,7.40465116 C15.895814,7.09639921 15.6459264,6.84651163 15.3376744,6.84651163 Z M8.08186047,8.52093023 C7.56810721,8.52093023 7.15162791,8.10445093 7.15162791,7.59069767 C7.15162791,7.07694442 7.56810721,6.66046512 8.08186047,6.66046512 C8.59561372,6.66046512 9.01209302,7.07694442 9.01209302,7.59069767 C9.01209302,8.10445093 8.59561372,8.52093023 8.08186047,8.52093023 Z" id="Shape"></path>
                        <path d="M15.3376744,12.055814 L14.3293023,12.055814 C14.0815381,11.1747689 13.2780106,10.5660385 12.3627907,10.5660385 C11.4475708,10.5660385 10.6440433,11.1747689 10.3962791,12.055814 L0.826046512,12.055814 C0.517794558,12.055814 0.267906977,12.3057015 0.267906977,12.6139535 C0.267906977,12.9222054 0.517794558,13.172093 0.826046512,13.172093 L10.3925581,13.172093 C10.6403224,14.053138 11.4438499,14.6618685 12.3590698,14.6618685 C13.2742897,14.6618685 14.0778171,14.053138 14.3255814,13.172093 L15.3376744,13.172093 C15.6459264,13.172093 15.895814,12.9222054 15.895814,12.6139535 C15.895814,12.3057015 15.6459264,12.055814 15.3376744,12.055814 Z M12.3609302,13.544186 C11.847177,13.544186 11.4306977,13.1277067 11.4306977,12.6139535 C11.4306977,12.1002002 11.847177,11.6837209 12.3609302,11.6837209 C12.8746835,11.6837209 13.2911628,12.1002002 13.2911628,12.6139535 C13.2911628,13.1277067 12.8746835,13.544186 12.3609302,13.544186 Z" id="Shape"></path>
                    </g>
                </g>
            </g>
        </g>
    </g>
</svg>
